icon/ir/favourite-window.svg

<svg viewBox="0 0 24 24" stroke-width="1.5" fill="none" xmlns="http://www.w3.org/2000/svg" height="1em" width="1em">
  <path d="M13 21H4C2.89543 21 2 20.1046 2 19V5C2 3.89543 2.89543 3 4 3H20C21.1046 3 22 3.89543 22 5V13" stroke="currentColor" stroke-linecap="round"/>
  <path d="M22 17.2798C22 17.8812 21.7625 18.4588 21.3383 18.8861C20.3619 19.8701 19.415 20.8961 18.4021 21.8443C18.17 22.0585 17.8017 22.0507 17.5795 21.8268L14.6615 18.8861C13.7795 17.9972 13.7795 16.5623 14.6615 15.6734C15.5522 14.7758 17.0032 14.7758 17.8938 15.6734L17.9999 15.7803L18.1059 15.6734C18.533 15.2429 19.1146 15 19.7221 15C20.3297 15 20.9113 15.2428 21.3383 15.6734C21.7625 16.1007 22 16.6784 22 17.2798Z" stroke="currentColor" stroke-linejoin="round"/>
  <path d="M2 7L22 7" stroke="currentColor" stroke-linecap="round" stroke-linejoin="round"/>
  <path d="M5 5.01L5.01 4.99889" stroke="currentColor" stroke-linecap="round" stroke-linejoin="round"/>
  <path d="M8 5.01L8.01 4.99889" stroke="currentColor" stroke-linecap="round" stroke-linejoin="round"/>
  <path d="M11 5.01L11.01 4.99889" stroke="currentColor" stroke-linecap="round" stroke-linejoin="round"/>
</svg>

<svg width="24" height="24" stroke-width="1.5" fill="none" xmlns="http://www.w3.org/2000/svg"><path d="M13 21H4a2 2 0 0 1-2-2V5a2 2 0 0 1 2-2h16a2 2 0 0 1 2 2v8" stroke="currentColor" stroke-linecap="round"/><path d="M22 17.28a2.28 2.28 0 0 1-.662 1.606c-.976.984-1.923 2.01-2.936 2.958a.597.597 0 0 1-.823-.017l-2.918-2.94a2.281 2.281 0 0 1 0-3.214 2.277 2.277 0 0 1 3.233 0l.106.107.106-.107A2.277 2.277 0 0 1 22 17.28Z" stroke="currentColor" stroke-linejoin="round"/><path d="M2 7h20M5 5.01l.01-.011M8 5.01l.01-.011M11 5.01l.01-.011" stroke="currentColor" stroke-linecap="round" stroke-linejoin="round"/></svg>
